svg/color/axpon.svg

<svg width="40" height="40" viewBox="0 0 40 40" fill="none" xmlns="http://www.w3.org/2000/svg">
<g clip-path="url(#clip0_820_3909)">
<path d="M20 0C31.0457 0 40 8.9543 40 20C40 31.0457 31.0457 40 20 40C8.95431 40 7.90517e-06 31.0457 0 20C6.58765e-07 8.95431 8.95431 1.97595e-06 20 0Z" fill="#CCE2F6"/>
<path d="M26 6C30.4183 6 34 9.58172 34 14V26C34 30.4183 30.4183 34 26 34H14C9.58172 34 6 30.4183 6 26V14C6 9.58172 9.58172 6 14 6H26Z" fill="#016FD0"/>
<path d="M10 10H29.9503V20.7966L28.9628 22.3434L29.9503 23.72V30H10V19.8221L10.6172 19.1106L10 18.43V10Z" fill="#016FD0"/>
<path d="M13.8728 23.9364V20.7964H17.1892L17.545 21.2614L17.9126 20.7964H29.9503V23.7198C29.9503 23.7198 29.6355 23.9332 29.2714 23.9364H22.6059L22.2047 23.4414V23.9364H20.8901V23.0914C20.8901 23.0914 20.7106 23.2094 20.3223 23.2094H19.8749V23.9364H17.8845L17.5292 23.4614L17.1684 23.9364H13.8728Z" fill="white"/>
<path d="M10 18.4298L10.7479 16.6819H12.0412L12.4656 17.661V16.6819H14.0734L14.326 17.3895L14.571 16.6819H21.7881V17.0376C21.7881 17.0376 22.1675 16.6819 22.7911 16.6819L25.1327 16.6901L25.5498 17.6564V16.6819H26.8953L27.2656 17.2369V16.6819H28.6234V19.8219H27.2656L26.9107 19.265V19.8219H24.934L24.7352 19.3269H24.2037L24.0082 19.8219H22.6676C22.1311 19.8219 21.7881 19.4734 21.7881 19.4734V19.8219H19.7669L19.3657 19.3269V19.8219H11.8496L11.651 19.3269H11.1212L10.924 19.8219H10V18.4298Z" fill="white"/>
<path d="M11.0125 17.0691L10.0038 19.4202H10.6606L10.8467 18.9494H11.9287L12.1138 19.4202H12.785L11.7773 17.0691H11.0125ZM11.3857 17.6163L11.7156 18.439H11.055L11.3857 17.6163Z" fill="#016FD0"/>
<path d="M12.8545 19.4197V17.0686L13.7877 17.0721L14.3305 18.5879L14.8603 17.0686H15.7861V19.4197H15.1997V17.6873L14.5782 19.4197H14.064L13.4408 17.6873V19.4197H12.8545Z" fill="#016FD0"/>
<path d="M16.1872 19.4197V17.0686H18.1005V17.5945H16.7797V17.9967H18.0696V18.4917H16.7797V18.9093H18.1005V19.4197H16.1872Z" fill="#016FD0"/>
<path d="M18.4399 17.0691V19.4202H19.0263V18.5849H19.2731L19.9761 19.4202H20.6926L19.9212 18.554C20.2378 18.5272 20.5644 18.2548 20.5644 17.8319C20.5644 17.3371 20.177 17.0691 19.7447 17.0691H18.4399ZM19.0263 17.595H19.6965C19.8573 17.595 19.9742 17.7211 19.9742 17.8425C19.9742 17.9987 19.8227 18.09 19.7052 18.09H19.0263V17.595Z" fill="#016FD0"/>
<path d="M21.4024 19.4197H20.8037V17.0686H21.4024V19.4197Z" fill="#016FD0"/>
<path d="M22.8219 19.4197H22.6927C22.0674 19.4197 21.6878 18.9259 21.6878 18.2538C21.6878 17.5651 22.0632 17.0686 22.8528 17.0686H23.5008V17.6254H22.8291C22.5085 17.6254 22.2819 17.8762 22.2819 18.2596C22.2819 18.715 22.5411 18.9062 22.9145 18.9062H23.0688L22.8219 19.4197Z" fill="#016FD0"/>
<path d="M24.0977 17.0691L23.089 19.4202H23.7457L23.9319 18.9494H25.0138L25.199 19.4202H25.8702L24.8624 17.0691H24.0977ZM24.4709 17.6163L24.8007 18.439H24.1402L24.4709 17.6163Z" fill="#016FD0"/>
<path d="M25.9387 19.4197V17.0686H26.6841L27.6359 18.5458V17.0686H28.2222V19.4197H27.5009L26.525 17.9039V19.4197H25.9387Z" fill="#016FD0"/>
<path d="M14.274 23.5342V21.1831H16.1872V21.709H14.8664V22.1112H16.1564V22.6062H14.8664V23.0238H16.1872V23.5342H14.274Z" fill="#016FD0"/>
<path d="M23.6489 23.5342V21.1831H25.5622V21.709H24.2414V22.1112H25.5252V22.6062H24.2414V23.0238H25.5622V23.5342H23.6489Z" fill="#016FD0"/>
<path d="M16.2615 23.5342L17.193 22.3732L16.2393 21.1831H16.978L17.546 21.9188L18.1159 21.1831H18.8257L17.8845 22.3587L18.8177 23.5342H18.0792L17.5277 22.8101L16.9895 23.5342H16.2615Z" fill="#016FD0"/>
<path d="M18.8874 21.1836V23.5347H19.4891V22.7923H20.1063C20.6285 22.7923 21.0244 22.5145 21.0244 21.9744C21.0244 21.527 20.7139 21.1836 20.1825 21.1836H18.8874ZM19.4891 21.7153H20.1391C20.3078 21.7153 20.4284 21.819 20.4284 21.986C20.4284 22.1429 20.3084 22.2567 20.1372 22.2567H19.4891V21.7153Z" fill="#016FD0"/>
<path d="M21.279 21.1831V23.5342H21.8653V22.699H22.1122L22.8152 23.5342H23.5317L22.7602 22.668C23.0768 22.6412 23.4034 22.3688 23.4034 21.9459C23.4034 21.4511 23.016 21.1831 22.5837 21.1831H21.279ZM21.8653 21.709H22.5355C22.6963 21.709 22.8132 21.8351 22.8132 21.9565C22.8132 22.1127 22.6617 22.204 22.5442 22.204H21.8653V21.709Z" fill="#016FD0"/>
<path d="M25.8338 23.5342V23.0238H27.0072C27.1808 23.0238 27.256 22.9297 27.256 22.8266C27.256 22.7277 27.181 22.6278 27.0072 22.6278H26.4769C26.016 22.6278 25.7593 22.3463 25.7593 21.9236C25.7593 21.5467 25.9944 21.1831 26.6793 21.1831H27.8211L27.5742 21.7121H26.5867C26.398 21.7121 26.3398 21.8114 26.3398 21.9062C26.3398 22.0037 26.4116 22.1112 26.5559 22.1112H27.1113C27.6251 22.1112 27.8481 22.4034 27.8481 22.786C27.8481 23.1973 27.5996 23.5342 27.0833 23.5342H25.8338Z" fill="#016FD0"/>
<path d="M27.9857 23.5342V23.0238H29.1591C29.3327 23.0238 29.4079 22.9297 29.4079 22.8266C29.4079 22.7277 29.3329 22.6278 29.1591 22.6278H28.6288C28.1679 22.6278 27.9112 22.3463 27.9112 21.9236C27.9112 21.5467 28.1463 21.1831 28.8312 21.1831H29.973L29.7261 21.7121H28.7386C28.5499 21.7121 28.4918 21.8114 28.4918 21.9062C28.4918 22.0037 28.5636 22.1112 28.7078 22.1112H29.2632C29.777 22.1112 30 22.4034 30 22.786C30 23.1973 29.7516 23.5342 29.2353 23.5342H27.9857Z" fill="#016FD0"/>
</g>
<defs>
<clipPath id="clip0_820_3909">
<rect width="40" height="40" fill="white"/>
</clipPath>
</defs>
</svg>

<svg xmlns="http://www.w3.org/2000/svg" width="40" height="40" fill="none" viewBox="0 0 40 40"><g clip-path="url(#axpon_svg-a)"><path fill="#CCE2F6" d="M20 0c11.046 0 20 8.954 20 20s-8.954 20-20 20S0 31.046 0 20 8.954 0 20 0"/><path fill="#016FD0" d="M26 6a8 8 0 0 1 8 8v12a8 8 0 0 1-8 8H14a8 8 0 0 1-8-8V14a8 8 0 0 1 8-8z"/><path fill="#016FD0" d="M10 10h19.95v10.797l-.987 1.546.987 1.377V30H10V19.822l.617-.711L10 18.43z"/><path fill="#fff" d="M13.873 23.936v-3.14h3.316l.356.465.368-.465H29.95v2.924s-.314.213-.679.216h-6.665l-.401-.495v.495H20.89v-.845s-.18.118-.568.118h-.447v.727h-1.99l-.356-.475-.36.475zM10 18.43l.748-1.748h1.293l.425.979v-.98h1.607l.253.709.245-.708h7.217v.356s.38-.356 1.003-.356l2.342.008.417.966v-.974h1.345l.37.555v-.555h1.358v3.14h-1.357l-.355-.557v.557h-1.977l-.199-.495h-.531l-.196.495h-1.34c-.537 0-.88-.349-.88-.349v.349h-2.021l-.401-.495v.495H11.85l-.199-.495h-.53l-.197.495H10z"/><path fill="#016FD0" d="m11.013 17.07-1.01 2.35h.658l.186-.47h1.082l.185.47h.671l-1.008-2.35zm.373.546.33.823h-.661zm1.469 1.804v-2.351l.933.003.543 1.516.53-1.52h.925v2.352H15.2v-1.733l-.622 1.733h-.514l-.623-1.733v1.733zm3.332 0v-2.351H18.1v.526h-1.32v.402h1.29v.495h-1.29v.417h1.32v.51zm2.253-2.35v2.35h.586v-.835h.247l.703.835h.717l-.772-.866a.715.715 0 0 0 .643-.722c0-.495-.387-.763-.82-.763zm.586.525h.67c.161 0 .278.126.278.248 0 .156-.151.247-.269.247h-.679zm2.376 1.825h-.598v-2.351h.598zm1.42 0h-.13c-.625 0-1.004-.494-1.004-1.166 0-.689.375-1.185 1.165-1.185h.648v.556h-.672c-.32 0-.547.251-.547.635 0 .455.26.646.633.646h.154zm1.276-2.35-1.009 2.35h.657l.186-.47h1.082l.185.47h.671l-1.008-2.35zm.373.546.33.823h-.66zm1.468 1.804v-2.351h.745l.952 1.477v-1.477h.586v2.35h-.721l-.976-1.515v1.516zm-11.665 4.114v-2.35h1.913v.525h-1.32v.402h1.29v.495h-1.29v.418h1.32v.51zm9.375 0v-2.35h1.913v.525h-1.32v.402h1.283v.495h-1.284v.418h1.321v.51zm-7.387 0 .931-1.16-.954-1.19h.739l.568.735.57-.736h.71l-.942 1.176.934 1.175h-.739l-.551-.724-.538.724zm2.625-2.35v2.35h.602v-.742h.617c.522 0 .918-.277.918-.818 0-.447-.31-.79-.841-.79zm.602.531h.65c.169 0 .29.104.29.271 0 .157-.12.27-.292.27h-.648zm1.79-.532v2.351h.586V22.7h.247l.703.835h.717l-.772-.866a.715.715 0 0 0 .643-.722c0-.495-.387-.763-.82-.763zm.586.526h.67c.161 0 .278.126.278.247 0 .157-.151.248-.269.248h-.679zm3.969 1.825v-.51h1.173c.174 0 .249-.094.249-.197 0-.1-.075-.2-.249-.2h-.53c-.461 0-.718-.28-.718-.703 0-.377.235-.74.92-.74h1.142l-.247.528h-.987c-.189 0-.247.1-.247.194 0 .098.072.205.216.205h.555c.514 0 .737.292.737.675 0 .411-.248.748-.765.748zm2.152 0v-.51h1.173c.174 0 .249-.094.249-.197 0-.1-.075-.2-.249-.2h-.53c-.461 0-.718-.28-.718-.703 0-.377.235-.74.92-.74h1.142l-.247.528h-.987c-.19 0-.247.1-.247.194 0 .098.072.205.216.205h.555c.514 0 .737.292.737.675 0 .411-.248.748-.765.748z"/></g><defs><clipPath id="axpon_svg-a"><path fill="#fff" d="M0 0h40v40H0z"/></clipPath></defs></svg>
